X: 1238
T: Kaçma Mecbûrundan
C: Hâşim Bey
O: Turkey
F: http://compmusic.upf.edu/node/140
N: bestenigar--sarki--agiraksak--kacma_mecburundan--hasim_bey
N: makam= bestenigar
N: form= sarki
N: usul= agiraksak = 9/4
M: 9/4
L: 1/16
K: C _2/4B _3/4d  
Q: 1/4=69
%%MIDI tuningsystem comma53
d3/2c/_1/4Bc d3e c3d B3c A3B A2G2 A2G2 ^F2^E2 F4  | \
w:  ARANAĞME  | 
^F^EFG A2_1/4B2 cdef eddc cdcB BAAB c4 dcBd c4  | 
w:   | 
d3/2c/_1/4Bc d3e c3d B3c A3B A2G2 A2G2 ^F2^E2 F4  | \
w:  ARANAĞME  | 
^F^EFG A2_1/4B2 cdef edcB A3G AGGF F4 EFGE F4  | 
w:   | 
z8 z2^F4A2 A3G F2A2 G2_1/4B2 A2c2 B2d2  | \
w:  Kaç ma  mec *  *  *  bû  | 
edcd c2_1/4B2 z2c4d2 e3d c2d2 B4 c3B e2dc  | 
w:  *  *  *  *  *  *  run dan_ ey  *  *  *  â  | 
c8 z2c4d2 e2fe =d2e2 d4 e8  | z2e4a2 g3f e2g2 f3e d2f2 e2d2 c2_1/4B2 d4  | 
w:  *  hû yi  vah *  *  *  *  şî   |  ül *  *  *  *  *  *  *  *  *  *  *  *  *  fet   | 
c2_1/4Bc d2cd e2de f2fe eddc cBdc c6G2 A2B2  | 
w:  et  *  *  *  *  *  *  *  *  a  câ *  *  *  *  *  *  *  *  *  nım   SAZ  | 
c3=d ced2 z2d4d2 d2c2 _1/4B2A2 A2AG A2B2 c2_3/4de  | \
w:  *  *  *  *  *  Gay rı  bu  *  *  *  bî  | 
d2c4_1/4B4c4de d2c2 c2B2 c3B A4 BABc  | 
w:  *  *  *  gâ ne *  lik *  *  *  ten   | 
A8 z2A4e2 e2d2 c2_1/4B2 A2AG A2B2 c2d2  | \
w:  *  geç  ve fâ *  *  *  yı   | 
d3c c3_1/4B B3A A2B2 dcBA AGG^F F8 B4  | 
w:  â *  *  *  *  *  *  *  *  *  *  *  *  *  *  *  *  det   | 
z2_1/4BA G2A2 B2c4BA A3G AGG^F F6ef e=dd^c  | 
w:  et  *  *  *  *  *  a  *  câ *  *  *  *  *  nım   SAZ  | 
=d3e d^cd2 z2d4^e2 ^f3e dc_1/4B2 c4 d4 e4  | \
w:  *  *  *  *  *  Bez me  gel  *  *  *  *  ser  | 
^f8 z2d4^e2 f2g2 e2f2 e4 f4 agfg  | 
w:  *  mest_ i  hic *  *  *  rin   | 
a8 z2d4a2 a2g2 ^f2a2 agg=f feed dcc_1/4B  | \
w:  *  neş e yâ *  *  *  bı   | 
c2c4a2 g3f e2g2 f3e d2f2 e2d2 c2_1/4B2 d4  | 
w:  *  vus *  *  *  *  *  *  *  *  *  *  *  *  *  lat   | 
c2_1/4Bc d2cd e2de f2fe eddc cBdc c6G2 A2B2  | 
w:  et  *  *  *  *  *  *  *  *  a  *  *  câ *  *  *  *  *  *  *  nım   SAZ  | 
c3=d ced2 z2d4d2 d2c2 _1/4B2A2 A2AG A2B2 c2_3/4de  | \
w:  *  *  *  *  *  Gay rı  bu  *  *  *  bî  | 
d2c4_1/4B4c4de d2c2 c2B2 c3B A4 BABc  | 
w:  *  *  *  gâ ne *  lik *  *  *  ten   | 
A8 z2A4e2 e2d2 c2_1/4B2 A2AG A2B2 c2d2  | \
w:  *  geç  ve fâ *  *  *  yı   | 
d3c c3_1/4B B3A A2B2 dcBA AGG^F F8 B4  | 
w:  â *  *  *  *  *  *  *  *  *  *  *  *  *  *  *  *  det   | 
z2_1/4BA G2A2 B2c4BA A3G AGG^F F8 z4  | |


